justvector/twitter.svg

<?xml version="1.0" encoding="iso-8859-1"?>
<!-- Generator: Adobe Illustrator 15.0.0, SVG Export Plug-In . SVG Version: 6.00 Build 0)  -->
<!DOCTYPE svg PUBLIC "-//W3C//DTD SVG 1.1//EN" "http://www.w3.org/Graphics/SVG/1.1/DTD/svg11.dtd">
<svg version="1.1" id="Icons" xmlns="http://www.w3.org/2000/svg" xmlns:xlink="http://www.w3.org/1999/xlink" x="0px" y="0px"
	 width="100px" height="100px" viewBox="0 0 100 100" style="enable-background:new 0 0 100 100;" xml:space="preserve">
<path id="Twitter" d="M72.262,72.496H50.054c-3.087,0-5.712-1.08-7.869-3.25c-2.167-2.172-3.238-4.797-3.238-7.899v-7.903h31.644
	c2.854,0,5.312-1.026,7.354-3.063c2.042-2.054,3.066-4.509,3.066-7.366c0-2.867-1.025-5.319-3.072-7.366
	c-2.049-2.042-4.514-3.066-7.38-3.066H38.947V16.254c0-3.09-1.102-5.735-3.29-7.939C33.478,6.107,30.843,5,27.782,5
	c-3.146,0-5.825,1.091-8.004,3.25c-2.186,2.166-3.278,4.834-3.278,8.014v45.09c0,9.274,3.278,17.197,9.837,23.773
	C32.902,91.715,40.815,95,50.067,95h22.202c3.083,0,5.729-1.107,7.93-3.315c2.203-2.197,3.302-4.848,3.302-7.935
	c0-3.088-1.099-5.734-3.302-7.941C77.997,73.607,75.347,72.496,72.262,72.496z"/>
</svg>

<?xml version="1.0" encoding="UTF-8" standalone="no"?>
<!DOCTYPE svg PUBLIC "-//W3C//DTD SVG 1.1//EN" "http://www.w3.org/Graphics/SVG/1.1/DTD/svg11.dtd">
<svg width="100%" height="100%" viewBox="0 0 100 100" version="1.1" xmlns="http://www.w3.org/2000/svg" xmlns:xlink="http://www.w3.org/1999/xlink" xml:space="preserve" xmlns:serif="http://www.serif.com/" style="fill-rule:evenodd;clip-rule:evenodd;stroke-linejoin:round;stroke-miterlimit:2;">
    <path id="Twitter" d="M72.262,72.496L60.054,72.496C56.967,72.496 54.342,71.416 52.185,69.246C50.018,67.074 48.947,64.449 48.947,61.347L48.947,53.444L70.591,53.444C73.445,53.444 75.903,52.418 77.945,50.381C79.987,48.327 81.011,45.872 81.011,43.015C81.011,40.148 79.986,37.696 77.939,35.649C75.89,33.607 73.425,32.583 70.559,32.583L48.947,32.583L48.947,14.254C48.859,14.342 16.5,14.264 16.5,14.264L16.5,61.354C16.5,70.628 19.778,78.551 26.337,85.127C32.902,91.715 40.815,95 50.067,95L72.269,95C75.352,95 77.998,93.893 80.199,91.685C82.402,89.488 83.501,86.837 83.501,83.75C83.501,80.662 82.402,78.016 80.199,75.809C77.997,73.607 75.347,72.496 72.262,72.496Z" style="fill:white;fill-rule:nonzero;"/>
</svg>
